X: 120
T:On the Way to New Orleans
R:Reel
C:Emile Benoit
M:C|
L:1/8
Z:Gerry Strong
K:D
fg|:fd ~d2 edcA|FAFD G2 AG|FAdf gecA|dcde fddg|fd ~d2 edcA|FAFD G2 AG|FA
df gecA|dcde d2 fg:|
|:fd ~d2 adfd|e2 ge bege|fd ~d2 adfd|ecAc e2 ag|fd ~d2 adfd|e2 ge bege|f
d ~d2 adfd|1ecAc d2 fg:|2ecAc d2||
<end>
<start>
